X: 20
T:Pasodoble de Pastoriza
M:2/4
L:1/8
Q:300
C:Tradicional
R:Pasodoble
K:D
F2 |: D4- | D2 F2 | E4- | E2 {c} E2 | C2 E2 | A2 G2 | F4- | F2 {B} F2 |
D4- | D2 B2 | G4 | {c}G2 {D}G2 | F2 D2 | E2 C2 | D4- |1 D2 F2 :|2 DF GA
|
B2A2 | G2F2 | D4- | DF GA | B2A2 | G2F2 | A4- | AG FE |
A2G2 | F2E2 | A4- | AB AG | A2 G2 | F2E2 | D4- | D2 ||

